mockup/templates/main/build/images/GROHE EcoButton.svg

<svg xmlns="http://www.w3.org/2000/svg" width="48" height="48" viewBox="0 0 48 48">
  <g fill="none" fill-rule="evenodd">
    <rect width="48" height="48" fill="#132D52" rx="8"/>
    <path fill="#FFF" d="M17.0626257 38.7986859C17.3280552 38.8230621 17.4688953 38.9964038 17.4688953 39.2591248 17.4688953 39.4974696 17.3280552 39.6735197 17.0626257 39.6951875L15.540469 39.6951875C15.277748 39.6735197 15.1341994 39.4974696 15.1341994 39.2591248 15.1341994 38.9964038 15.277748 38.8230621 15.540469 38.7986859L17.0626257 38.7986859zM19.3691536 38.3173918C19.5397868 38.2794734 19.7266708 38.2469718 19.902721 38.2469718 20.7694295 38.2469718 21.3842508 38.9322132 21.3842508 39.7664201 21.3842508 40.9608527 20.726094 41.7463072 19.4910345 41.7463072 18.9818433 41.7463072 17.9174169 41.4185831 17.9174169 40.787511 17.9174169 40.5220815 18.139511 40.3026959 18.4076489 40.3026959 18.6920376 40.3026959 19.0333041 40.7577179 19.5127022 40.7577179 20.0110596 40.7577179 20.2683636 40.2756113 20.2683636 39.8260063 20.2683636 39.3953605 20.0246019 39.1055549 19.5831223 39.1055549 19.1687273 39.1055549 19.1037241 39.3384828 18.7434984 39.3384828 18.4591097 39.3384828 18.3182696 39.1245141 18.3182696 38.9999248 18.3182696 38.9105455 18.3345204 38.8374169 18.3399373 38.7615799L18.5214044 37.2502571C18.5972414 36.6950219 18.7326646 36.5731411 19.0766395 36.5731411L20.7965141 36.5731411C21.1242382 36.5731411 21.3192476 36.7681505 21.3192476 37.0227461 21.3192476 37.518395 20.9481881 37.5590219 20.8181818 37.5590219L19.4747837 37.5590219 19.3691536 38.3173918zM24.6168025 39.1161179C24.6168025 38.5771335 24.5653417 37.4612464 23.8394734 37.4612464 23.1081881 37.4612464 23.0621442 38.5771335 23.0621442 39.1161179 23.0621442 39.6226006 23.1081881 40.7736978 23.8394734 40.7736978 24.5653417 40.7736978 24.6168025 39.6226006 24.6168025 39.1161179M21.9489655 39.1161179C21.9489655 37.9514784 22.3958621 36.4889078 23.8394734 36.4889078 25.2803762 36.4889078 25.7326897 37.9514784 25.7326897 39.1161179 25.7326897 40.2807574 25.2803762 41.7460364 23.8394734 41.7460364 22.3958621 41.7460364 21.9489655 40.2807574 21.9489655 39.1161179M31.2926245 40.5946683C31.2926245 40.3671574 31.1572013 40.166731 30.9242734 40.166731 30.6859285 40.166731 30.5505053 40.3671574 30.5505053 40.5946683 30.5505053 40.8248878 30.6859285 41.0117718 30.9242734 41.0117718 31.1572013 41.0117718 31.2926245 40.8248878 31.2926245 40.5946683L31.2926245 40.5946683zM29.8219285 40.5946683C29.8219285 39.9744301 30.2877843 39.4354458 30.9242734 39.4354458 31.5607624 39.4354458 32.0239097 39.9744301 32.0239097 40.5946683 32.0239097 41.2149066 31.5607624 41.7457655 30.9242734 41.7457655 30.2877843 41.7457655 29.8219285 41.2149066 29.8219285 40.5946683L29.8219285 40.5946683zM30.5152953 36.675521C30.6100915 36.4940539 30.6778031 36.44801 30.8430194 36.44801 31.0651135 36.44801 31.2655398 36.6240602 31.2655398 36.8461542 31.2655398 36.9057404 31.2655398 36.9517843 31.2086621 37.0601229L28.808963 41.5534646C28.7006245 41.7024301 28.657289 41.783684 28.4866558 41.783684 28.3024803 41.783684 28.0803862 41.6076339 28.0803862 41.3963737 28.0803862 41.2880351 28.1237216 41.1878219 28.1508063 41.1309442L30.5152953 36.675521zM28.7764614 37.6451511C28.7764614 37.4176401 28.6437467 37.2199223 28.4081103 37.2199223 28.172474 37.2199223 28.0370508 37.4176401 28.0370508 37.6451511 28.0370508 37.8753705 28.172474 38.064963 28.4081103 38.064963 28.6437467 38.064963 28.7764614 37.8753705 28.7764614 37.6451511L28.7764614 37.6451511zM27.308474 37.6451511C27.308474 37.0249129 27.7743298 36.488637 28.4081103 36.488637 29.0418909 36.488637 29.5077467 37.0249129 29.5077467 37.6451511 29.5077467 38.2653893 29.0418909 38.7962483 28.4081103 38.7962483 27.7743298 38.7962483 27.308474 38.2653893 27.308474 37.6451511L27.308474 37.6451511zM29.0841429 15.2927398C29.341447 15.0002257 29.6908389 14.5858307 29.3793655 14.8566771 28.9243436 15.2494044 28.6670395 14.6508339 28.6670395 14.6508339L28.6751649 14.6779185C27.3182245 12.6303197 25.9314909 10.2170784 24.9049831 6.9994232 24.7180991 6.40626959 24.4364188 6 23.8432652 6 23.334074 6 22.9738483 6.41710345 22.843842 6.9994232 20.327679 15.2196113 14.921585 18.5212288 14.9377992 24.3552602 14.9377992 25.5198997 15.1761806 26.7089154 15.6149517 27.827511 15.6095348 27.8356364 15.6149517 27.862721 15.6447448 27.9493918 15.8180865 28.4477492 15.5634909 28.6698433 15.5634909 28.6698433L15.8993404 28.4883762C17.2887824 31.3999749 20.100168 33.6940439 23.7809705 33.6940439 29.604168 33.6940439 33.3878922 28.9921505 33.3878922 24.5123511 33.3878922 21.0103072 31.3348765 18.6024828 29.0841429 15.2927398"/>
    <path fill="#B4C0D0" d="M16.5946031,29.7025806 C18.1221768,32.0101918 20.6302144,33.6948564 23.780158,33.6948564 C29.6060639,33.6948564 33.3870796,28.9875461 33.3870796,24.5131636 C33.3870796,21.4282232 31.7945028,19.1964489 29.8796188,16.447358 L16.5946031,29.7025806 Z"/>
    <path fill="#132D52" d="M35.7759448,11.0502019 C35.648647,11.0502019 35.5213492,11.0014495 35.426553,10.9066533 C35.239669,10.7143524 35.2369605,10.4110044 35.4292614,10.2214119 L35.4428038,10.2051611 C35.6378132,10.0182771 35.9465781,10.0209856 36.1361705,10.2132865 C36.325763,10.4082959 36.3203461,10.7170608 36.1280451,10.9066533 C36.0305404,10.9987411 35.9032426,11.0502019 35.7759448,11.0502019 M32.4499511,14.3761956 C32.3226533,14.3761956 32.2007724,14.3274433 32.1059762,14.2299386 C31.9136752,14.0403461 31.9136752,13.7288727 32.1059762,13.5392803 L33.6470922,12.0035812 C33.8366846,11.8112803 34.1454495,11.8112803 34.335042,12.0035812 C34.5273429,12.1958821 34.5273429,12.504647 34.335042,12.6942395 L32.7966345,14.232647 C32.6991298,14.3274433 32.571832,14.3761956 32.4499511,14.3761956 M29.1266658,17.688647 C29.0020765,17.688647 28.8747787,17.6426031 28.7826909,17.54239 C28.59039,17.3527975 28.59039,17.0440326 28.7826909,16.8544401 L30.3210984,15.3160326 C30.5133994,15.1264401 30.8248727,15.1264401 31.0144652,15.3160326 C31.2040577,15.5083335 31.2040577,15.8198069 31.0117567,16.0093994 L29.4706408,17.5450984 C29.378553,17.6426031 29.2512552,17.688647 29.1266658,17.688647 M25.8033806,21.0038069 C25.6760828,21.0038069 25.5542019,20.9523461 25.4566972,20.8602583 C25.2671047,20.6679574 25.2671047,20.3591925 25.4594056,20.1668915 L27.0005216,18.6311925 C27.1901141,18.4388915 27.498879,18.4416 27.6938884,18.6311925 C27.8834809,18.8234934 27.8834809,19.1295498 27.6911799,19.3218508 L26.1500639,20.8602583 C26.0552677,20.9550545 25.9279699,21.0038069 25.8033806,21.0038069 M22.4828038,24.3135498 C22.355506,24.3135498 22.2309166,24.267506 22.1361204,24.1754182 C21.9465279,23.9804088 21.9465279,23.6716439 22.1388288,23.4820514 L23.6772364,21.9436439 C23.8695373,21.7540514 24.1783022,21.7540514 24.3678947,21.9436439 C24.5574871,22.1359448 24.5574871,22.4447097 24.3678947,22.6370107 L22.8267787,24.1754182 C22.7346909,24.267506 22.6073931,24.3135498 22.4828038,24.3135498 M19.1595185,27.6287097 C19.0322207,27.6287097 18.9076313,27.5826658 18.8128351,27.4824527 C18.6232426,27.2928602 18.6232426,26.9868038 18.8128351,26.7945028 L20.3566596,25.2588038 C20.546252,25.0665028 20.8550169,25.0665028 21.0473179,25.2588038 C21.2369103,25.4483962 21.2369103,25.7625781 21.0473179,25.9494621 L19.5034934,27.4824527 C19.4086972,27.5826658 19.2841078,27.6287097 19.1595185,27.6287097 M15.8389417,30.9438696 C15.7116439,30.9438696 15.5870545,30.8978257 15.4922583,30.800321 C15.2999574,30.6080201 15.2999574,30.2965467 15.4922583,30.1096627 L17.0333743,28.5739636 C17.2229668,28.3816627 17.5344401,28.3816627 17.7240326,28.5739636 C17.9136251,28.7662646 17.9136251,29.0750295 17.7240326,29.2646219 L16.1829166,30.800321 C16.0854119,30.8978257 15.963531,30.9438696 15.8389417,30.9438696 M12.5156564,34.2590295 C12.3883586,34.2590295 12.2637693,34.2075687 12.168973,34.1154809 C11.9793806,33.9231799 11.9793806,33.614415 12.168973,33.4221141 L13.7127975,31.8837066 C13.90239,31.6941141 14.2111549,31.6968226 14.4007473,31.8837066 C14.5930483,32.078716 14.5930483,32.3874809 14.4007473,32.5770734 L12.8596313,34.1154809 C12.7648351,34.2102771 12.6402458,34.2590295 12.5156564,34.2590295"/>
    <path fill="#FFF" d="M32.2925893,13.1449279 C32.1652915,13.1449279 32.0407022,13.0961755 31.945906,13.0013793 C31.753605,12.8117868 31.7563135,12.5030219 31.945906,12.310721 L33.8743323,10.3877116 C34.0639248,10.1981191 34.3781066,10.1981191 34.5649906,10.3877116 C34.7545831,10.582721 34.7545831,10.8914859 34.5649906,11.0810784 L32.6365643,13.0013793 C32.541768,13.0961755 32.4171787,13.1449279 32.2925893,13.1449279 M28.8257555,16.6036364 C28.7011661,16.6036364 28.5738683,16.554884 28.4790721,16.4600878 C28.2867712,16.2677868 28.2867712,15.9590219 28.4817806,15.766721 L30.40479,13.8464201 C30.5970909,13.6541191 30.9058558,13.6568276 31.0981567,13.8491285 C31.2877492,14.038721 31.2877492,14.3474859 31.0981567,14.5397868 L29.1724389,16.4600878 C29.0776426,16.554884 28.9503448,16.6036364 28.8257555,16.6036364 M25.3562132,20.0596364 C25.2343323,20.0596364 25.1070345,20.0135925 25.0122382,19.9187962 C24.8199373,19.7264953 24.8226458,19.4150219 25.0122382,19.2281379 L26.9352476,17.3051285 C27.1329655,17.1155361 27.4417304,17.1155361 27.6286144,17.3051285 C27.8209154,17.494721 27.8209154,17.8089028 27.6286144,17.9984953 L25.7001881,19.9187962 C25.6081003,20.0135925 25.4808025,20.0596364 25.3562132,20.0596364 M21.8893793,23.5183448 C21.76479,23.5183448 21.6374922,23.4723009 21.5454044,23.3747962 C21.3558119,23.1824953 21.3558119,22.8737304 21.5454044,22.6814295 L23.4711223,20.763837 C23.6607147,20.5688276 23.9721881,20.5715361 24.1617806,20.763837 C24.351373,20.9561379 24.351373,21.2621944 24.1617806,21.4517868 L22.2360627,23.3747962 C22.1412665,23.4723009 22.0139687,23.5183448 21.8893793,23.5183448 M18.4225455,26.9743448 C18.2979561,26.9743448 18.1706583,26.9283009 18.0785705,26.8335047 C17.8862696,26.6412038 17.8862696,26.3324389 18.0785705,26.1428464 L20.0042884,24.219837 C20.1938809,24.0302445 20.5026458,24.0302445 20.6949467,24.219837 C20.8872476,24.4121379 20.8872476,24.7209028 20.6949467,24.9132038 L18.7692288,26.8335047 C18.6744326,26.9283009 18.5498433,26.9743448 18.4225455,26.9743448 M14.9557116,30.4357618 C14.8311223,30.4357618 14.7038245,30.3870094 14.6117367,30.2895047 C14.4194357,30.0999122 14.4194357,29.7911473 14.6117367,29.5961379 L16.5374545,27.6785455 C16.7297555,27.4835361 17.0358119,27.488953 17.2281129,27.6785455 C17.4204138,27.8708464 17.4177053,28.1796113 17.2281129,28.3692038 L15.302395,30.2895047 C15.2048903,30.3870094 15.0830094,30.4357618 14.9557116,30.4357618 M11.4861693,33.8890533 C11.3615799,33.8890533 11.2369906,33.8457179 11.1421944,33.7482132 C10.9526019,33.5559122 10.9526019,33.2498558 11.1421944,33.0575549 L13.0679122,31.1372539 C13.2629216,30.9422445 13.5716865,30.9422445 13.7585705,31.1372539 C13.9535799,31.3268464 13.9535799,31.6356113 13.7585705,31.8279122 L11.8328527,33.7482132 C11.7380564,33.8457179 11.6134671,33.8890533 11.4861693,33.8890533"/>
    <path fill="#132D52" d="M29.8194909 17.1786433C29.8194909 17.1786433 30.1417981 16.7832075 30.3991022 17.1786433 30.6591147 17.574079 30.1553404 16.5502796 30.1553404 16.5502796L29.8194909 17.1786433zM17.2134871 29.763521C17.2134871 29.763521 16.7828414 30.0452013 17.1078571 30.4514708 17.4626658 30.8198219 16.4659511 29.9883235 16.4659511 29.9883235L17.2134871 29.763521z"/>
  </g>
</svg>

<svg xmlns="http://www.w3.org/2000/svg" width="48" height="48"><g fill="none" fill-rule="evenodd"><rect width="48" height="48" fill="#132D52" rx="8"/><path fill="#FFF" d="M17.063 38.799c.265.024.406.197.406.46 0 .238-.14.415-.406.436H15.54c-.262-.021-.406-.198-.406-.436 0-.263.144-.436.406-.46h1.523zm2.306-.482c.17-.038.358-.07.534-.07.866 0 1.481.685 1.481 1.52 0 1.194-.658 1.98-1.893 1.98-.51 0-1.574-.328-1.574-.96a.49.49 0 0 1 .49-.484c.285 0 .626.455 1.106.455.498 0 .755-.482.755-.932 0-.43-.243-.72-.685-.72-.414 0-.48.232-.84.232-.284 0-.425-.213-.425-.338 0-.09.017-.163.022-.238l.181-1.512c.076-.555.212-.677.556-.677h1.72c.327 0 .522.195.522.45 0 .495-.37.536-.5.536h-1.344l-.106.758zm5.248.8c0-.54-.052-1.656-.778-1.656-.73 0-.777 1.116-.777 1.655 0 .507.046 1.658.777 1.658.726 0 .778-1.151.778-1.658m-2.668 0c0-1.165.447-2.627 1.89-2.627 1.441 0 1.894 1.462 1.894 2.627 0 1.165-.453 2.63-1.894 2.63-1.443 0-1.89-1.465-1.89-2.63m9.344 1.479c0-.228-.136-.428-.369-.428-.238 0-.373.2-.373.428 0 .23.135.417.373.417.233 0 .369-.187.369-.417zm-1.471 0c0-.62.466-1.16 1.102-1.16.637 0 1.1.54 1.1 1.16 0 .62-.463 1.15-1.1 1.15-.636 0-1.102-.53-1.102-1.15zm.693-3.92c.095-.18.163-.227.328-.227.222 0 .423.176.423.398 0 .06 0 .106-.057.214l-2.4 4.493c-.108.15-.152.23-.322.23-.185 0-.407-.175-.407-.387 0-.108.044-.208.07-.265l2.365-4.455zm-1.739.97c0-.227-.132-.425-.368-.425s-.37.198-.37.425c0 .23.134.42.37.42s.368-.19.368-.42zm-1.468 0c0-.62.466-1.156 1.1-1.156.634 0 1.1.536 1.1 1.156 0 .62-.466 1.151-1.1 1.151-.634 0-1.1-.53-1.1-1.15zm1.776-22.352c.257-.293.607-.707.295-.436-.455.392-.712-.206-.712-.206l.008.027c-1.357-2.048-2.744-4.46-3.77-7.679-.187-.593-.469-.999-1.062-.999-.509 0-.87.417-1 1-2.515 8.22-7.921 11.521-7.905 17.355 0 1.165.238 2.354.677 3.473-.005.008 0 .035.03.121.173.499-.082.72-.082.72l.336-.18c1.39 2.911 4.201 5.205 7.882 5.205 5.823 0 9.607-4.702 9.607-9.182 0-3.502-2.053-5.91-4.304-9.22"/><path fill="#B4C0D0" d="M16.595 29.703c1.527 2.307 4.035 3.992 7.185 3.992 5.826 0 9.607-4.707 9.607-9.182 0-3.085-1.592-5.317-3.507-8.066L16.595 29.703z"/><path fill="#132D52" d="M35.776 11.05a.484.484 0 0 1-.347-.829l.014-.016a.494.494 0 0 1 .693.008.491.491 0 0 1-.008.694.517.517 0 0 1-.352.143m-3.326 3.326a.474.474 0 0 1-.344-.146.486.486 0 0 1 0-.69l1.541-1.536a.482.482 0 0 1 .688 0 .486.486 0 0 1 0 .69l-1.538 1.539a.502.502 0 0 1-.347.143m-3.323 3.313a.463.463 0 0 1-.344-.147.482.482 0 0 1 0-.688l1.538-1.538a.494.494 0 0 1 .693 0 .49.49 0 0 1-.002.693l-1.541 1.536a.47.47 0 0 1-.344.144m-3.324 3.315a.491.491 0 0 1-.344-.837l1.542-1.536a.488.488 0 1 1 .69.69l-1.54 1.54a.493.493 0 0 1-.348.143m-3.32 3.31a.494.494 0 0 1-.347-.139.491.491 0 0 1 .003-.693l1.538-1.538a.49.49 0 0 1 .69 0c.19.192.19.5 0 .693l-1.54 1.538a.488.488 0 0 1-.344.139m-3.323 3.315a.47.47 0 0 1-.347-.147.487.487 0 0 1 0-.687l1.544-1.536a.486.486 0 0 1 .69 0 .49.49 0 0 1 0 .69l-1.544 1.533a.468.468 0 0 1-.343.147m-3.321 3.315a.477.477 0 0 1-.347-.144.486.486 0 0 1 0-.69l1.541-1.536a.486.486 0 0 1 .691 0 .49.49 0 0 1 0 .69L16.183 30.8a.48.48 0 0 1-.344.144m-3.323 3.315a.5.5 0 0 1-.347-.144.494.494 0 0 1 0-.693l1.544-1.538a.489.489 0 0 1 .688.693l-1.541 1.538a.486.486 0 0 1-.344.144"/><path fill="#FFF" d="M32.293 13.145a.488.488 0 0 1-.347-.834l1.928-1.923a.49.49 0 0 1 .691 0c.19.195.19.503 0 .693l-1.928 1.92a.486.486 0 0 1-.344.144m-3.467 3.459a.493.493 0 0 1-.347-.144.486.486 0 0 1 .003-.693l1.923-1.92a.49.49 0 0 1 .693.693l-1.926 1.92a.493.493 0 0 1-.346.144m-3.47 3.456a.488.488 0 0 1-.344-.831l1.923-1.924a.494.494 0 0 1 .694 0 .489.489 0 0 1 0 .693l-1.929 1.92a.479.479 0 0 1-.344.142m-3.467 3.458a.47.47 0 0 1-.344-.143.494.494 0 0 1 0-.694l1.926-1.917a.487.487 0 1 1 .69.688l-1.925 1.923a.481.481 0 0 1-.347.143m-3.466 3.456a.486.486 0 0 1-.344-.831l1.925-1.923a.49.49 0 0 1 .69.693l-1.925 1.92a.485.485 0 0 1-.346.141m-3.467 3.462a.474.474 0 0 1-.344-.146.489.489 0 0 1 0-.694l1.925-1.917a.488.488 0 1 1 .69.69l-1.925 1.92a.484.484 0 0 1-.346.147m-3.47 3.453a.472.472 0 0 1-.344-.14.49.49 0 0 1 0-.691l1.926-1.92a.48.48 0 0 1 .69 0 .48.48 0 0 1 0 .69l-1.925 1.92a.474.474 0 0 1-.347.141"/><path fill="#132D52" d="M29.82 17.179s.322-.396.58 0c.26.395-.245-.629-.245-.629l-.336.629zM17.212 29.764s-.43.281-.105.687c.355.369-.642-.463-.642-.463l.747-.224z"/></g></svg>
